!!!!SEGMENT: pl-kk--kk-i-329--007_costanzi-giovanni-battista--confitebor-redemptionem.krn
!!!cenid: 17xx:1926
!!!COM: Costanzi, Giovanni Battista
!!!COM-rismID: pe20000434
!!!CDT: 1704-1778
!!!CNT: Italian
!!!OPR: Confitebor
!!!OTL: Redemptionem
!!!OMV: 007
!!!PDT:
!!!AGN: Sacred
!!!SMS-siglum: PL-Kk
!!!SMS-shelfmark: Kk.I.329
!!!SMS-shelfwork: 001-007 M
!!!SMS-variant:
!!!SMS-altvar:
!!!NIFC-rismSourceID: 1001143621
!!!NIFC-islandoraID: pl-kk:5543
!!!URL-pdf-islandora: https://repozytorium.nifc.pl/islandora/object/pl-kk%3A5543/datastream/PDF/view
!!!URL-scan: https://polish.musicsources.pl/pl/lokalizacje/galeria/rekopisy/5948 @EN{Scan on Polish Music Sources Website} @PL{Skany w portalu Dziedzictwo Muzyki Polskiej w otwartym dostępie}
!!!ONB-nifc: UWAGA: części Confitebor: 1. Confitebor, 2. Magna opera, 3. Confessio, 4. Memoriam fecit, 5. Memor erit, 6. Fidelia omnia, 7. Redemptionem, 8. Sanctum, 9. Intellectus bonus, 10. Gloria Patri, 11. Sicut erat, 12. Amen
!!!AIN: 2 alto 2 bass 1 organ 1 tenor 2 vox
!!!key:
**kern	**fba	**kern	**kern	**kern	**kern	**kern	**kern	**kern	**text
*part8	*	*part7	*part6	*part5	*part4	*part3	*part2	*part1	*part1
*	*	*group2	*group2	*group2	*group2	*group1	*group1	*group1	*
*staff8	*	*staff7	*staff6	*staff5	*staff4	*staff3	*staff2	*staff1	*staff1
*Iorgan	*	*Ibass	*Itenor	*Ialto	*Ivox	*Ibass	*Ialto	*Ivox	*
*I"Organo.	*	*I"Basso di Ripieno	*I"Tenore di Ripieno	*I"Alto di Ripieno	*I"Canto di Ripieno	*I"Basso di Concerto	*I"Alto di Concerto	*I"Canto di Concerto	*
*I'org	*	*I'B rip	*I'T rip	*I'A rip	*I'S rip	*I'B conc	*I'A conc	*I'S conc	*
*clefF4	*	*clefF4	*clefC4	*clefC3	*clefC1	*clefF4	*clefC3	*clefC1	*
*k[f#c#g#]	*	*k[f#c#g#]	*k[f#c#g#]	*k[f#c#g#]	*k[f#c#g#]	*k[f#c#g#]	*k[f#c#g#]	*k[f#c#]	*
*A:	*	*A:	*A:	*A:	*A:	*A:	*A:	*A:	*
*M3/8	*	*M3/8	*M3/8	*M3/8	*M3/8	*M3/8	*M3/8	*M3/8	*
=1	=1	=1	=1	=1	=1	=1	=1	=1	=1
!LO:TX:a:B:t=All.o	!	!	!	!	!	!	!	!LO:TX:b:t=4	!
!LO:TX:a:B:t=Canto Solo	!	!LO:TX:a:t=Redemptionem Tacet	!LO:TX:a:t=Redemptionem Tacet	!LO:TX:a:t=Redemptionem Tacet	!LO:TX:a:t=Redemptionem Tacet	!LO:TX:a:t=Redemptionem Tacet	!LO:TX:a:t=Redemptionem Tacet	!LO:TX:t=P:problem=znaki f# cc#	!
!LO:TX:b:B:t=Redemptione	!	!	!	!	!	!	!	!LO:N:vis=00	!
8A\L	.	4.ryy	4.ryy	4.ryy	4.ryy	4.ryy	4.ryy	1.r	.
8E\	#	.	.	.	.	.	.	.	.
8E\J	3	.	.	.	.	.	.	.	.
=2	=2	=2	=2	=2	=2	=2	=2	=2	=2
16A\LL	.	4.ryy	4.ryy	4.ryy	4.ryy	4.ryy	4.ryy	.	.
16B\JJ	.	.	.	.	.	.	.	.	.
4c#\	.	.	.	.	.	.	.	.	.
=3	=3	=3	=3	=3	=3	=3	=3	=3	=3
16B\LL	.	4.ryy	4.ryy	4.ryy	4.ryy	4.ryy	4.ryy	.	.
16d\	.	.	.	.	.	.	.	.	.
16c#\	.	.	.	.	.	.	.	.	.
16B\	.	.	.	.	.	.	.	.	.
16A\	.	.	.	.	.	.	.	.	.
16G#\JJ	.	.	.	.	.	.	.	.	.
=4	=4	=4	=4	=4	=4	=4	=4	=4	=4
8A\L	.	4.ryy	4.ryy	4.ryy	4.ryy	4.ryy	4.ryy	.	.
8E\J	.	.	.	.	.	.	.	.	.
8r	.	.	.	.	.	.	.	.	.
!LO:LB:g=original	!	!	!	!	!	!	!	!	!
=5	=5	=5	=5	=5	=5	=5	=5	=5	=5
4A\	.	4.ryy	4.ryy	4.ryy	4.ryy	4.ryy	4.ryy	8a/	Re-
.	.	.	.	.	.	.	.	8e/	-dem-
!LO:TX:a:t=C.o	!	!	!	!	!	!	!	!	!
8r	.	.	.	.	.	.	.	8e/	-pti-
=6	=6	=6	=6	=6	=6	=6	=6	=6	=6
8A\L	.	4.ryy	4.ryy	4.ryy	4.ryy	4.ryy	4.ryy	16a\LL	-o-
.	.	.	.	.	.	.	.	16cc#\	.
8E\	#3	.	.	.	.	.	.	16b\	.
.	.	.	.	.	.	.	.	16dd\JJ	.
8AA\J	.	.	.	.	.	.	.	8cc#\	-nem
!	!	!	!	!	!	!	!	!LO:LB:g=original	!
=7	=7	=7	=7	=7	=7	=7	=7	=7	=7
4C#/	6	4.ryy	4.ryy	4.ryy	4.ryy	4.ryy	4.ryy	8a\	re-
.	.	.	.	.	.	.	.	8cc#\	-dem-
8C#/	.	.	.	.	.	.	.	8ee\	-pti-
=8	=8	=8	=8	=8	=8	=8	=8	=8	=8
8BB/L	.	4.ryy	4.ryy	4.ryy	4.ryy	4.ryy	4.ryy	8dd\L	-o-
8AA/	.	.	.	.	.	.	.	16cc#\L	.
.	.	.	.	.	.	.	.	16b\JJ	.
8GG#/J	.	.	.	.	.	.	.	8cc#\	-nem
=9	=9	=9	=9	=9	=9	=9	=9	=9	=9
8C#\L	6	4.ryy	4.ryy	4.ryy	4.ryy	4.ryy	4.ryy	8a\	mi-
8c#\	.	.	.	.	.	.	.	4a\	-sit
8c#\J	.	.	.	.	.	.	.	.	.
=10	=10	=10	=10	=10	=10	=10	=10	=10	=10
4d\	6	4.ryy	4.ryy	4.ryy	4.ryy	4.ryy	4.ryy	8b\	Do-
.	.	.	.	.	.	.	.	8g#X\	-mi-
8c#\	6	.	.	.	.	.	.	8a\	-nus
!	!	!	!	!	!	!	!	!LO:LB:g=original	!
=11	=11	=11	=11	=11	=11	=11	=11	=11	=11
8B\L	#6	4.ryy	4.ryy	4.ryy	4.ryy	4.ryy	4.ryy	16b\LL	po-
.	.	.	.	.	.	.	.	16dd\JJ	.
8A\	.	.	.	.	.	.	.	8cc#\	-pu-
8G#X\J	5	.	.	.	.	.	.	8b\	-lo
=12	=12	=12	=12	=12	=12	=12	=12	=12	=12
8A\L	.	4.ryy	4.ryy	4.ryy	4.ryy	4.ryy	4.ryy	16cc#\LL	Su-
.	.	.	.	.	.	.	.	16g#X\JJ	.
.	.	.	.	.	.	.	.	8qqb/	.
8c#\	.	.	.	.	.	.	.	4a\	-o
8B\J	.	.	.	.	.	.	.	.	.
=13	=13	=13	=13	=13	=13	=13	=13	=13	=13
8D/L	#6	4.ryy	4.ryy	4.ryy	4.ryy	4.ryy	4.ryy	8f#\L	po-
8BB/	.	.	.	.	.	.	.	8g#X\J	.
8C#/J	6	.	.	.	.	.	.	[8a\	-pu-
!LO:LB:g=original	!	!	!	!	!	!	!	!	!
=14	=14	=14	=14	=14	=14	=14	=14	=14	=14
8F#\L	7	4.ryy	4.ryy	4.ryy	4.ryy	4.ryy	4.ryy	8a\]	.
8G#\	6	.	.	.	.	.	.	16b\LL	-lo
.	.	.	.	.	.	.	.	16cc#\JJ	.
8E\J	.	.	.	.	.	.	.	8dd\	Su-
!	!	!	!	!	!	!	!	!LO:PB:g=original	!
=15	=15	=15	=15	=15	=15	=15	=15	=15	=15
8AA/L	.	4.ryy	4.ryy	4.ryy	4.ryy	4.ryy	4.ryy	4cc#\	-o
8C#/	.	.	.	.	.	.	.	.	.
8AA/J	.	.	.	.	.	.	.	8r	.
=16	=16	=16	=16	=16	=16	=16	=16	=16	=16
8E\L	.	4.ryy	4.ryy	4.ryy	4.ryy	4.ryy	4.ryy	4.ee\	man-
8G#X\	.	.	.	.	.	.	.	.	.
8E\J	.	.	.	.	.	.	.	.	.
=17	=17	=17	=17	=17	=17	=17	=17	=17	=17
4BB/	#3	4.ryy	4.ryy	4.ryy	4.ryy	4.ryy	4.ryy	8dd#X\L	-da-
.	.	.	.	.	.	.	.	8cc#\J	.
8BB/	.	.	.	.	.	.	.	8b\	-vit
=18	=18	=18	=18	=18	=18	=18	=18	=18	=18
8C#/L	.	4.ryy	4.ryy	4.ryy	4.ryy	4.ryy	4.ryy	8a\	in
8D#X/	.	.	.	.	.	.	.	4a\	E-
8BB/J	.	.	.	.	.	.	.	.	.
=19	=19	=19	=19	=19	=19	=19	=19	=19	=19
8E\L	.	4.ryy	4.ryy	4.ryy	4.ryy	4.ryy	4.ryy	8a\	-ter-
8E\	.	.	.	.	.	.	.	4g#X\	-num
8E\J	.	.	.	.	.	.	.	.	.
=20	=20	=20	=20	=20	=20	=20	=20	=20	=20
8E\L	6 4	4.ryy	4.ryy	4.ryy	4.ryy	4.ryy	4.ryy	4.b\	man-
8E\	.	.	.	.	.	.	.	.	.
8E\J	.	.	.	.	.	.	.	.	.
=21	=21	=21	=21	=21	=21	=21	=21	=21	=21
8E\L	5 3	4.ryy	4.ryy	4.ryy	4.ryy	4.ryy	4.ryy	16b\LL	-da-
.	.	.	.	.	.	.	.	16cc#\	.
8E\	.	.	.	.	.	.	.	16b\	.
.	.	.	.	.	.	.	.	16a#X\	.
8E\J	.	.	.	.	.	.	.	16b\	.
.	.	.	.	.	.	.	.	16f#\JJ	.
!LO:LB:g=original	!	!	!	!	!	!	!	!LO:LB:g=original	!
=22	=22	=22	=22	=22	=22	=22	=22	=22	=22
!LO:TX:t=P:problem=brak ośmiu taktów (22-29)	!	!	!	!	!	!	!	!	!
4.ryy	.	4.ryy	4.ryy	4.ryy	4.ryy	4.ryy	4.ryy	4an\	.
.	.	.	.	.	.	.	.	8ff#\	.
=23	=23	=23	=23	=23	=23	=23	=23	=23	=23
4.ryy	.	4.ryy	4.ryy	4.ryy	4.ryy	4.ryy	4.ryy	4.g#X\	.
=24	=24	=24	=24	=24	=24	=24	=24	=24	=24
4.ryy	.	4.ryy	4.ryy	4.ryy	4.ryy	4.ryy	4.ryy	4.b\	.
=25	=25	=25	=25	=25	=25	=25	=25	=25	=25
4.ryy	.	4.ryy	4.ryy	4.ryy	4.ryy	4.ryy	4.ryy	16b\LL	.
.	.	.	.	.	.	.	.	16cc#\	.
.	.	.	.	.	.	.	.	16b\	.
.	.	.	.	.	.	.	.	16a#X\	.
.	.	.	.	.	.	.	.	16b\	.
.	.	.	.	.	.	.	.	16f#\JJ	.
=26	=26	=26	=26	=26	=26	=26	=26	=26	=26
4.ryy	.	4.ryy	4.ryy	4.ryy	4.ryy	4.ryy	4.ryy	4.an\	.
=27	=27	=27	=27	=27	=27	=27	=27	=27	=27
4.ryy	.	4.ryy	4.ryy	4.ryy	4.ryy	4.ryy	4.ryy	16g#X\LL	.
.	.	.	.	.	.	.	.	16e\	.
.	.	.	.	.	.	.	.	16f#\	.
.	.	.	.	.	.	.	.	16g#\	.
.	.	.	.	.	.	.	.	16a\	.
.	.	.	.	.	.	.	.	16b\JJ	.
!	!	!	!	!	!	!	!	!LO:LB:g=original	!
=28	=28	=28	=28	=28	=28	=28	=28	=28	=28
4.ryy	.	4.ryy	4.ryy	4.ryy	4.ryy	4.ryy	4.ryy	16cc#\LL	.
.	.	.	.	.	.	.	.	16b\	.
.	.	.	.	.	.	.	.	16a\	.
.	.	.	.	.	.	.	.	16b\	.
.	.	.	.	.	.	.	.	16cc#\	.
.	.	.	.	.	.	.	.	16dd\JJ	.
=29	=29	=29	=29	=29	=29	=29	=29	=29	=29
4.ryy	.	4.ryy	4.ryy	4.ryy	4.ryy	4.ryy	4.ryy	16ee\LL	.
.	.	.	.	.	.	.	.	16dd#X\	.
.	.	.	.	.	.	.	.	16gg\	.
.	.	.	.	.	.	.	.	16ff#\JJ	.
.	.	.	.	.	.	.	.	[8ee\	.
=30	=30	=30	=30	=30	=30	=30	=30	=30	=30
4A\	.	4.ryy	4.ryy	4.ryy	4.ryy	4.ryy	4.ryy	8ee\L]	.
.	.	.	.	.	.	.	.	8cc#\J	.
8G#X\	.	.	.	.	.	.	.	8b\	-vit
=31	=31	=31	=31	=31	=31	=31	=31	=31	=31
8F#\L	.	4.ryy	4.ryy	4.ryy	4.ryy	4.ryy	4.ryy	8a\	in
8E\	.	.	.	.	.	.	.	4g#X\	E-
8D\J	.	.	.	.	.	.	.	.	.
!	!	!	!	!	!	!	!	!LO:LB:g=original	!
=32	=32	=32	=32	=32	=32	=32	=32	=32	=32
8BB/L	6	4.ryy	4.ryy	4.ryy	4.ryy	4.ryy	4.ryy	8g#X\	-ter-
8BB/	5	.	.	.	.	.	.	4g#\	-num
8BB/J	.	.	.	.	.	.	.	.	.
=33	=33	=33	=33	=33	=33	=33	=33	=33	=33
8C#/L	#	4.ryy	4.ryy	4.ryy	4.ryy	4.ryy	4.ryy	(8ee\L	te-
8C#/	6	.	.	.	.	.	.	8a#X\J)	.
8C#/J	.	.	.	.	.	.	.	8a#\	-sta-
=34	=34	=34	=34	=34	=34	=34	=34	=34	=34
8C#/L	.	4.ryy	4.ryy	4.ryy	4.ryy	4.ryy	4.ryy	8a#X\	-men-
8C#/	.	.	.	.	.	.	.	4a#\	-tum
8C#/J	.	.	.	.	.	.	.	.	.
=35	=35	=35	=35	=35	=35	=35	=35	=35	=35
8BB/L	#	4.ryy	4.ryy	4.ryy	4.ryy	4.ryy	4.ryy	16b\LL	Su-
.	.	.	.	.	.	.	.	16a#X\JJ	.
8BB/	6	.	.	.	.	.	.	4b\	-um
8BB/J	.	.	.	.	.	.	.	.	.
=36	=36	=36	=36	=36	=36	=36	=36	=36	=36
4.BB/	.	4.ryy	4.ryy	4.ryy	4.ryy	4.ryy	4.ryy	8dd\L	te-
.	.	.	.	.	.	.	.	8g#X\J	.
.	.	.	.	.	.	.	.	8g#\	-sta-
!	!	!	!	!	!	!	!	!LO:LB:g=original	!
=37	=37	=37	=37	=37	=37	=37	=37	=37	=37
8BB/L	.	4.ryy	4.ryy	4.ryy	4.ryy	4.ryy	4.ryy	8g#X\	-men-
8BB/	.	.	.	.	.	.	.	4g#\	-tum
8BB/J	.	.	.	.	.	.	.	.	.
=38	=38	=38	=38	=38	=38	=38	=38	=38	=38
8AA/L	.	4.ryy	4.ryy	4.ryy	4.ryy	4.ryy	4.ryy	16a\LL	Su-
.	.	.	.	.	.	.	.	16g#X\JJ	.
8AA/	.	.	.	.	.	.	.	4a\	-um
8AA/J	.	.	.	.	.	.	.	.	.
!LO:PB:g=original	!	!	!	!	!	!	!	!	!
=39	=39	=39	=39	=39	=39	=39	=39	=39	=39
8C#/L	.	4.ryy	4.ryy	4.ryy	4.ryy	4.ryy	4.ryy	16a\LL	tes-
.	.	.	.	.	.	.	.	16b\JJ	.
8BB/	.	.	.	.	.	.	.	4cc#\	-ta-
8AA/J	.	.	.	.	.	.	.	.	.
=40	=40	=40	=40	=40	=40	=40	=40	=40	=40
8F#\L	.	4.ryy	4.ryy	4.ryy	4.ryy	4.ryy	4.ryy	16b\LL	-men-
.	.	.	.	.	.	.	.	16g#X\	.
8E\	.	.	.	.	.	.	.	16a\	.
.	.	.	.	.	.	.	.	16f#\JJ	.
8D\J	.	.	.	.	.	.	.	16g#X/LL	-tum
.	.	.	.	.	.	.	.	16e/JJ	.
=41	=41	=41	=41	=41	=41	=41	=41	=41	=41
8C#/L	.	4.ryy	4.ryy	4.ryy	4.ryy	4.ryy	4.ryy	16a\LL	Su-
.	.	.	.	.	.	.	.	16g\JJ	.
8AA/	.	.	.	.	.	.	.	4f#/	.
8BB/J	#3	.	.	.	.	.	.	.	.
!	!	!	!	!	!	!	!	!LO:LB:g=original	!
=42	=42	=42	=42	=42	=42	=42	=42	=42	=42
!LO:TX:t=P:problem=niezrozumiały napis u góry	!	!	!	!	!	!	!	!	!
8E\L	.	4.ryy	4.ryy	4.ryy	4.ryy	4.ryy	4.ryy	4e/	-um
8BB\	.	.	.	.	.	.	.	.	.
8BB\J	.	.	.	.	.	.	.	8r	.
=43	=43	=43	=43	=43	=43	=43	=43	=43	=43
!	!	!	!	!	!	!	!	!LO:TX:b:t=2	!
!	!	!	!	!	!	!	!	!LO:N:vis=0	!
16E\LL	.	4.ryy	4.ryy	4.ryy	4.ryy	4.ryy	4.ryy	2.r	.
16F#\JJ	.	.	.	.	.	.	.	.	.
4G#\	.	.	.	.	.	.	.	.	.
=44	=44	=44	=44	=44	=44	=44	=44	=44	=44
16F#\LL	.	4.ryy	4.ryy	4.ryy	4.ryy	4.ryy	4.ryy	.	.
16A\	.	.	.	.	.	.	.	.	.
16G#\	.	.	.	.	.	.	.	.	.
16F#\	.	.	.	.	.	.	.	.	.
16E\	.	.	.	.	.	.	.	.	.
16D#X\JJ	.	.	.	.	.	.	.	.	.
!LO:LB:g=original	!	!	!	!	!	!	!	!	!
=45	=45	=45	=45	=45	=45	=45	=45	=45	=45
4.E\	.	4.ryy	4.ryy	4.ryy	4.ryy	4.ryy	4.ryy	8b\	Re-
.	.	.	.	.	.	.	.	8e/	-dem-
.	.	.	.	.	.	.	.	8e/	-pti-
=46	=46	=46	=46	=46	=46	=46	=46	=46	=46
8E\L	.	4.ryy	4.ryy	4.ryy	4.ryy	4.ryy	4.ryy	16e/LL	-o-
.	.	.	.	.	.	.	.	16g#X/	.
8BB\	.	.	.	.	.	.	.	16f#/	.
.	.	.	.	.	.	.	.	16a/JJ	.
8E\J	.	.	.	.	.	.	.	8g#X/	-nem
=47	=47	=47	=47	=47	=47	=47	=47	=47	=47
8E\L	.	4.ryy	4.ryy	4.ryy	4.ryy	4.ryy	4.ryy	8e/	mi-
8G#\	.	.	.	.	.	.	.	4ee\	-sit
8E\J	.	.	.	.	.	.	.	.	.
!	!	!	!	!	!	!	!	!LO:LB:g=original	!
=48	=48	=48	=48	=48	=48	=48	=48	=48	=48
8B\L	4	4.ryy	4.ryy	4.ryy	4.ryy	4.ryy	4.ryy	8.dd\	Do-
8B\	3	.	.	.	.	.	.	.	.
.	.	.	.	.	.	.	.	16cc#\	-mi-
8B\J	.	.	.	.	.	.	.	8b\	-nus
=49	=49	=49	=49	=49	=49	=49	=49	=49	=49
.	.	.	.	.	.	.	.	8qqa/	.
8E\L	.	4.ryy	4.ryy	4.ryy	4.ryy	4.ryy	4.ryy	4g#X\	po-
8E\	.	.	.	.	.	.	.	.	.
8E\J	.	.	.	.	.	.	.	8b\	.
=50	=50	=50	=50	=50	=50	=50	=50	=50	=50
.	.	.	.	.	.	.	.	8qqee/	.
8E\L	.	4.ryy	4.ryy	4.ryy	4.ryy	4.ryy	4.ryy	4dd\	-pu-
8E\	.	.	.	.	.	.	.	.	.
8E\J	.	.	.	.	.	.	.	16cc#\LL	-lo
.	.	.	.	.	.	.	.	16b\JJ	.
=51	=51	=51	=51	=51	=51	=51	=51	=51	=51
8C#/L	.	4.ryy	4.ryy	4.ryy	4.ryy	4.ryy	4.ryy	8b\	su-
8C#/	.	.	.	.	.	.	.	4a\	-o
8C#/J	.	.	.	.	.	.	.	.	.
=52	=52	=52	=52	=52	=52	=52	=52	=52	=52
8AA/L	.	4.ryy	4.ryy	4.ryy	4.ryy	4.ryy	4.ryy	16cc#\LL	po-
.	.	.	.	.	.	.	.	16dd\J	.
8AA/	.	.	.	.	.	.	.	8ee\J	.
8AA/J	.	.	.	.	.	.	.	16dd\	-pu-
.	.	.	.	.	.	.	.	16cc#\	-lo
!LO:LB:g=original	!	!	!	!	!	!	!	!LO:LB:g=original	!
=53	=53	=53	=53	=53	=53	=53	=53	=53	=53
8E\L	.	4.ryy	4.ryy	4.ryy	4.ryy	4.ryy	4.ryy	8cc#\	Su-
8E\	.	.	.	.	.	.	.	4b\	-o
8D\J	.	.	.	.	.	.	.	.	.
=54	=54	=54	=54	=54	=54	=54	=54	=54	=54
8C#/L	.	4.ryy	4.ryy	4.ryy	4.ryy	4.ryy	4.ryy	4.a\	man-
8BB/	.	.	.	.	.	.	.	.	.
8AA/J	.	.	.	.	.	.	.	.	.
=55	=55	=55	=55	=55	=55	=55	=55	=55	=55
4D\	6	4.ryy	4.ryy	4.ryy	4.ryy	4.ryy	4.ryy	8b\L	-da-
.	.	.	.	.	.	.	.	8g#X\J	.
8C#/	.	.	.	.	.	.	.	8a\	-vit
=56	=56	=56	=56	=56	=56	=56	=56	=56	=56
4GG#X/	.	4.ryy	4.ryy	4.ryy	4.ryy	4.ryy	4.ryy	8e/	in
.	.	.	.	.	.	.	.	8dd\L	E-
8AA/	.	.	.	.	.	.	.	8cc#\J	.
=57	=57	=57	=57	=57	=57	=57	=57	=57	=57
4D\	6	4.ryy	4.ryy	4.ryy	4.ryy	4.ryy	4.ryy	8b\L	-ter-
.	.	.	.	.	.	.	.	8g#X\J	.
8C#\	.	.	.	.	.	.	.	8a\	-num
=58	=58	=58	=58	=58	=58	=58	=58	=58	=58
4GG#/	-5	4.ryy	4.ryy	4.ryy	4.ryy	4.ryy	4.ryy	8d/	in
.	.	.	.	.	.	.	.	8dd\L	E-
8AA/	.	.	.	.	.	.	.	8cc#\J	.
!	!	!	!	!	!	!	!	!LO:PB:g=original	!
=59	=59	=59	=59	=59	=59	=59	=59	=59	=59
8E\L	4	4.ryy	4.ryy	4.ryy	4.ryy	4.ryy	4.ryy	8cc#\	-ter-
8E\	3	.	.	.	.	.	.	4b\	-nu(m)
8E\J	.	.	.	.	.	.	.	.	.
!LO:LB:g=original	!	!	!	!	!	!	!	!	!
=60	=60	=60	=60	=60	=60	=60	=60	=60	=60
4.D\	6	4.ryy	4.ryy	4.ryy	4.ryy	4.ryy	4.ryy	8b\L	Ses-
.	.	.	.	.	.	.	.	8f#\J	.
.	.	.	.	.	.	.	.	8g#X\	-ta-
=61	=61	=61	=61	=61	=61	=61	=61	=61	=61
4C#\	.	4.ryy	4.ryy	4.ryy	4.ryy	4.ryy	4.ryy	8a\L	-men-
.	.	.	.	.	.	.	.	8cc#\	.
8A\	.	.	.	.	.	.	.	8ee\J	.
=62	=62	=62	=62	=62	=62	=62	=62	=62	=62
.	.	.	.	.	.	.	.	8qqee/	.
8B\L	.	4.ryy	4.ryy	4.ryy	4.ryy	4.ryy	4.ryy	4dd\	.
8G#\	5	.	.	.	.	.	.	.	.
8A\J	.	.	.	.	.	.	.	8cc#\	-tum
=63	=63	=63	=63	=63	=63	=63	=63	=63	=63
8F#\L	.	4.ryy	4.ryy	4.ryy	4.ryy	4.ryy	4.ryy	16dd\LL	Su-
.	.	.	.	.	.	.	.	16cc#\J	.
8E\	.	.	.	.	.	.	.	8cc#\	.
8D\J	.	.	.	.	.	.	.	8b\J	.
!	!	!	!	!	!	!	!	!LO:LB:g=original	!
=64	=64	=64	=64	=64	=64	=64	=64	=64	=64
8C#/L	.	4.ryy	4.ryy	4.ryy	4.ryy	4.ryy	4.ryy	4a\	-um
8BB/	.	.	.	.	.	.	.	.	.
8AA/J	.	.	.	.	.	.	.	8r	.
=65	=65	=65	=65	=65	=65	=65	=65	=65	=65
4.D\	6	4.ryy	4.ryy	4.ryy	4.ryy	4.ryy	4.ryy	8b\L	tes-
.	.	.	.	.	.	.	.	8f#\J	.
.	.	.	.	.	.	.	.	8g#X\	-ta-
=66	=66	=66	=66	=66	=66	=66	=66	=66	=66
4C#/	.	4.ryy	4.ryy	4.ryy	4.ryy	4.ryy	4.ryy	8a\L	-men-
.	.	.	.	.	.	.	.	8cc#\	.
8A\	.	.	.	.	.	.	.	8ee\J	.
=67	=67	=67	=67	=67	=67	=67	=67	=67	=67
.	.	.	.	.	.	.	.	8qqee/	.
8B\L	.	4.ryy	4.ryy	4.ryy	4.ryy	4.ryy	4.ryy	4dd\	.
8G#X\	.	.	.	.	.	.	.	.	.
8A\J	.	.	.	.	.	.	.	8cc#\	-tum
=68	=68	=68	=68	=68	=68	=68	=68	=68	=68
!LO:TX:t=P:problem=mixed beam	!	!	!	!	!	!	!	!	!
8D\L	.	4.ryy	4.ryy	4.ryy	4.ryy	4.ryy	4.ryy	16dd\LL	Su-
.	.	.	.	.	.	.	.	16b\J	.
8E\	.	.	.	.	.	.	.	8cc#\	.
8EE/J	.	.	.	.	.	.	.	8b\J	.
!LO:LB:g=original	!	!	!	!	!	!	!	!	!
=69	=69	=69	=69	=69	=69	=69	=69	=69	=69
!LO:TX:t=P:problem=mixed beam	!	!	!	!	!	!	!	!	!
8AA/L	.	4.ryy	4.ryy	4.ryy	4.ryy	4.ryy	4.ryy	4.a\	-um
8A\	.	.	.	.	.	.	.	.	.
8C#/J	.	.	.	.	.	.	.	.	.
!	!	!	!	!	!	!	!	!LO:LB:g=original	!
=70	=70	=70	=70	=70	=70	=70	=70	=70	=70
!	!	!	!	!	!	!	!	!LO:TX:b:t=2	!
!	!	!	!	!	!	!	!	!LO:N:vis=0	!
8D\L	.	4.ryy	4.ryy	4.ryy	4.ryy	4.ryy	4.ryy	2.r	.
8BB	.	.	.	.	.	.	.	.	.
8E\J	.	.	.	.	.	.	.	.	.
=71	=71	=71	=71	=71	=71	=71	=71	=71	=71
!	!	!	!	!	!	!	!	!LO:TX:b:t=Siegue a 3.e	!
4.A 4.E 4.AA/	.	4.ryy	4.ryy	4.ryy	4.ryy	4.ryy	4.ryy	.	.
==	==	==	==	==	==	==	==	==	==
*-	*-	*-	*-	*-	*-	*-	*-	*-	*-
!!!system-decoration: [g1][g2]s8
!!!ENC: Marta Lawrence
!!!END: 2021-02-14
!!!ENC: Andrzej Gręziak
!!!END: 2021-02-03
